X:1
T:Pippin's Song (from The Steward of Gondor)
C:Howard Shore
Z:Merecraft of Laurelin
Q:1/4=70
M:4/4
L:1/8
K:C
z2 ^C2 ^G^G |z _B =B^c/_B/ B^G z2 |z2 ^C/ ^C2 ^G^G |B B2 _B ^G4 |z2 ^c c/ ^G3 z/ |z2 ^c/_e/=e _e ^c2 z |z2 ^C ^C^G ^G/ z |z _B =B2 z B2 ^c/B/4 z/4 |^G4 z2 |z2 ^c^c ^c/ ^G3 z/ |^c2 _e =e2 _e ^c2 |z ^C2 ^G ^G4 |
z2 _B=B ^c2 |_BB/4B/4^G/ ^F2 ^G4 |]
%End of file
